icons/glyphs/glyph-chronometer.svg

<?xml version="1.0" encoding="UTF-8" standalone="no"?><svg height="16" viewBox="0 0 4.2333332 4.2333332" width="16" xmlns="http://www.w3.org/2000/svg"><sodipodi:namedview/><path d="m2.1166667 0c-.1734076 0-.3130451.1396375-.3130451.31304515v.0369234c-.94589396.15346714-1.64121674.96977465-1.64228297 1.92803685.00006897 1.0798693.87545877 1.955259 1.95532807 1.9553278 1.0798692-.0000689 1.9552589-.8754586 1.9553279-1.9553278-.0003393-.456673-.1605021-.8988249-.4527112-1.2497725l.2303691-.23117181-.3001723-.27371381-.2063187.23277713c-.2639796-.21281936-.5787627-.35333766-.9134496-.40776135v-.0353179c-.0000001-.17340761-.1396374-.31304516-.3130452-.31304516zm0 .81793075c.8061493.00023601 1.4594792.65392535 1.4592718 1.46007465h-.9254897c-.0000919-.2947616-.2390205-.5336902-.5337821-.5337821z" fill="#d0d0d0" stroke-linecap="square" stroke-width=".370417"/></svg>

<?xml version="1.0" encoding="UTF-8" standalone="no"?>
<svg height="16" viewBox="0 0 4.2333332 4.2333332" width="16" xmlns="http://www.w3.org/2000/svg">
	<sodipodi:namedview/>
	<path d="M 2.1166667 0 C 1.9432591 0 1.8036216 .1396375 1.8036216 .31304515 v .0369234 C .85772764 .50343569 .16240486 1.3197432 .16133863 2.2780054 C .1614076 3.3578747 1.0367974 4.2332644 2.1166667 4.2333332 C 3.1965359 4.2332643 4.0719256 3.3578746 4.0719946 2.2780054 C 4.0716553 1.8213324 3.9114925 1.3791805 3.6192834 1.0282329 L 3.8496525 .79706109 L 3.5494802 .52334728 L 3.3431615 .75612441 C 3.0791819 .54330505 2.7643988 .40278675 2.4297119 .34836306 V .31304516 C 2.4297118 .13963755 2.2900745 0 2.1166667 0 Z m 0 .81793075 C 2.922816 .81816676 3.5761459 1.4718561 3.5759385 2.2780054 H 2.6504488 C 2.6503569 1.9832438 2.4114283 1.7443152 2.1166667 1.7442233 Z" fill="#d0d0d0" stroke-linecap="square" stroke-width=".370417"/>
</svg>
